; HEADER_BLOCK_START
; generated by OrcaSlicer 2.3.1-alpha on 2025-11-23 at 09:06:41
; total layer number: 1
; filament_density: 1.25
; filament_diameter: 1.75
; max_z_height: 0.20
; HEADER_BLOCK_END

; THUMBNAIL_BLOCK_START

;
; THUMBNAIL_BLOCK_END

; external perimeters extrusion width = 0.42mm
; perimeters extrusion width = 0.45mm
; infill extrusion width = 0.45mm
; solid infill extrusion width = 0.42mm
; top infill extrusion width = 0.42mm
; first layer extrusion width = 0.50mm

; EXECUTABLE_BLOCK_START
EXCLUDE_OBJECT_DEFINE NAME=Cube_8_id_0_copy_0 CENTER=217.732,39.0256 POLYGON=[[192.732,14.0256],[242.732,14.0256],[242.732,64.0256],[192.732,64.0256],[192.732,14.0256]]
M106 S0
M106 P2 S0
;TYPE:Custom
;;===== date: 20240520 =====================
;printer_model:Elegoo Centauri Carbon
;initial_filament:PLA
;curr_bed_type:Textured PEI Plate
;Target chamber temp for print is 0

M400 ; wait for buffer to clear
M8213
M400
M220 S100 ;Set the feed speed to 100%
M221 S100 ;Set the flow rate to 100%

M104 S140
M140 S60

G90
G28 ;home
M729 ;Clean Nozzle



M204 S5000 ;Call exterior wall print acceleration


M190 S60
M109 S210
M83
G92 E0 ;Reset Extruder

SET_PRINT_STATS_INFO TOTAL_LAYER=1
;LAYER_COUNT:1
;LAYER:0
G90
G21
M83 ; use relative distances for extrusion
; filament start gcode
M106 P3 S200


M106 P2 S0
;LAYER_CHANGE
;Z:0.2
;HEIGHT:0.2
;BEFORE_LAYER_CHANGE
;0.2
G92 E0
;
;
;
;
;
;
G1 E-.8 F1800
;LAYER:1
SET_PRINT_STATS_INFO CURRENT_LAYER=1

;_SET_FAN_SPEED_CHANGING_LAYER
SET_VELOCITY_LIMIT ACCEL=500
EXCLUDE_OBJECT_START NAME=Cube_8_id_0_copy_0
G1 X242.382 Y63.676 F30000
G1 Z.6
G1 Z.2
G1 E.8 F1800
;TYPE:Outer wall
;WIDTH:0.5
G1 F3000
G1 X193.082 Y63.676 E1.79876
G1 X193.082 Y14.376 E1.79876
G1 X242.382 Y14.376 E1.79876
G1 X242.382 Y63.636 E1.7973
G1 E-.728 F1800
;WIPE_START
G1 F30000
G1 X241.182 Y63.637 E-.072
;WIPE_END
G1 X241.336 Y56.006 Z.6
G1 X242.154 Y15.53 Z.6
G1 Z.2
G1 E.8 F1800
;TYPE:Bottom surface
;WIDTH:0.500793
G1 F6300
G1 X241.434 Y14.81 E.03721
G1 X240.786 Y14.81 E.02367
G1 X241.948 Y15.972 E.06005
G1 X241.948 Y16.619 E.02367
G1 X240.138 Y14.81 E.09352
G1 X239.491 Y14.81 E.02367
G1 X241.948 Y17.267 E.12699
G1 X241.948 Y17.914 E.02367
G1 X238.843 Y14.81 E.16046
G1 X238.196 Y14.81 E.02367
G1 X241.948 Y18.562 E.19393
G1 X241.948 Y19.209 E.02367
G1 X237.548 Y14.81 E.2274
G1 X236.901 Y14.81 E.02367
G1 X241.948 Y19.857 E.26087
G1 X241.948 Y20.504 E.02367
G1 X236.253 Y14.81 E.29434
G1 X235.606 Y14.81 E.02367
G1 X241.948 Y21.152 E.32781
G1 X241.948 Y21.799 E.02367
G1 X234.958 Y14.81 E.36128
G1 X234.311 Y14.81 E.02367
G1 X241.948 Y22.447 E.39475
G1 X241.948 Y23.094 E.02367
G1 X233.663 Y14.81 E.42822
G1 X233.016 Y14.81 E.02367
G1 X241.948 Y23.742 E.46169
G1 X241.948 Y24.39 E.02367
G1 X232.368 Y14.81 E.49516
G1 X231.721 Y14.81 E.02367
G1 X241.948 Y25.037 E.52863
G1 X241.948 Y25.685 E.02367
G1 X231.073 Y14.81 E.5621
G1 X230.426 Y14.81 E.02367
G1 X241.948 Y26.332 E.59557
G1 X241.948 Y26.98 E.02367
G1 X229.778 Y14.81 E.62904
G1 X229.13 Y14.81 E.02367
G1 X241.948 Y27.627 E.66251
G1 X241.948 Y28.275 E.02367
G1 X228.483 Y14.81 E.69598
G1 X227.835 Y14.81 E.02367
G1 X241.948 Y28.922 E.72945
G1 X241.948 Y29.57 E.02367
G1 X227.188 Y14.81 E.76292
G1 X226.54 Y14.81 E.02367
G1 X241.948 Y30.217 E.79639
G1 X241.948 Y30.865 E.02367
G1 X225.893 Y14.81 E.82986
G1 X225.245 Y14.81 E.02367
G1 X241.948 Y31.512 E.86333
G1 X241.948 Y32.16 E.02367
G1 X224.598 Y14.81 E.8968
G1 X223.95 Y14.81 E.02367
G1 X241.948 Y32.807 E.93027
G1 X241.948 Y33.455 E.02367
G1 X223.303 Y14.81 E.96374
G1 X222.655 Y14.81 E.02367
G1 X241.948 Y34.103 E.99721
G1 X241.948 Y34.75 E.02367
G1 X222.008 Y14.81 E1.03068
G1 X221.36 Y14.81 E.02367
G1 X241.948 Y35.398 E1.06415
G1 X241.948 Y36.045 E.02367
G1 X220.713 Y14.81 E1.09762
G1 X220.065 Y14.81 E.02367
G1 X241.948 Y36.693 E1.13109
G1 X241.948 Y37.34 E.02367
G1 X219.418 Y14.81 E1.16456
G1 X218.77 Y14.81 E.02367
G1 X241.948 Y37.988 E1.19803
G1 X241.948 Y38.635 E.02367
G1 X218.122 Y14.81 E1.2315
G1 X217.475 Y14.81 E.02367
G1 X241.948 Y39.283 E1.26497
G1 X241.948 Y39.93 E.02367
G1 X216.827 Y14.81 E1.29844
G1 X216.18 Y14.81 E.02367
G1 X241.948 Y40.578 E1.33191
G1 X241.948 Y41.225 E.02367
G1 X215.532 Y14.81 E1.36538
G1 X214.885 Y14.81 E.02367
G1 X241.948 Y41.873 E1.39885
G1 X241.948 Y42.52 E.02367
G1 X214.237 Y14.81 E1.43232
G1 X213.59 Y14.81 E.02367
G1 X241.948 Y43.168 E1.46579
G1 X241.948 Y43.815 E.02367
G1 X212.942 Y14.81 E1.49926
G1 X212.295 Y14.81 E.02367
G1 X241.948 Y44.463 E1.53273
G1 X241.948 Y45.111 E.02367
G1 X211.647 Y14.81 E1.5662
G1 X211 Y14.81 E.02367
G1 X241.948 Y45.758 E1.59967
G1 X241.948 Y46.406 E.02367
G1 X210.352 Y14.81 E1.63314
G1 X209.705 Y14.81 E.02367
G1 X241.948 Y47.053 E1.66661
G1 X241.948 Y47.701 E.02367
G1 X209.057 Y14.81 E1.70008
G1 X208.409 Y14.81 E.02367
G1 X241.948 Y48.348 E1.73355
G1 X241.948 Y48.996 E.02367
G1 X207.762 Y14.81 E1.76702
G1 X207.114 Y14.81 E.02367
G1 X241.948 Y49.643 E1.80049
G1 X241.948 Y50.291 E.02367
G1 X206.467 Y14.81 E1.83396
G1 X205.819 Y14.81 E.02367
G1 X241.948 Y50.938 E1.86743
G1 X241.948 Y51.586 E.02367
G1 X205.172 Y14.81 E1.9009
G1 X204.524 Y14.81 E.02367
G1 X241.948 Y52.233 E1.93437
G1 X241.948 Y52.881 E.02367
G1 X203.877 Y14.81 E1.96784
G1 X203.229 Y14.81 E.02367
G1 X241.948 Y53.528 E2.00131
G1 X241.948 Y54.176 E.02367
G1 X202.582 Y14.81 E2.03478
G1 X201.934 Y14.81 E.02367
G1 X241.948 Y54.823 E2.06825
G1 X241.948 Y55.471 E.02367
G1 X201.287 Y14.81 E2.10172
G1 X200.639 Y14.81 E.02367
G1 X241.948 Y56.119 E2.13519
G1 X241.948 Y56.766 E.02367
G1 X199.992 Y14.81 E2.16866
G1 X199.344 Y14.81 E.02367
G1 X241.948 Y57.414 E2.20213
G1 X241.948 Y58.061 E.02367
G1 X198.697 Y14.81 E2.2356
G1 X198.049 Y14.81 E.02367
G1 X241.948 Y58.709 E2.26907
G1 X241.948 Y59.356 E.02367
G1 X197.401 Y14.81 E2.30254
G1 X196.754 Y14.81 E.02367
G1 X241.948 Y60.004 E2.33601
G1 X241.948 Y60.651 E.02367
G1 X196.106 Y14.81 E2.36948
G1 X195.459 Y14.81 E.02367
G1 X241.948 Y61.299 E2.40295
G1 X241.948 Y61.946 E.02367
G1 X194.811 Y14.81 E2.43642
G1 X194.164 Y14.81 E.02367
G1 X241.948 Y62.594 E2.46989
G1 X241.948 Y63.241 E.02367
G1 X193.516 Y14.81 E2.50336
G1 X193.516 Y15.457 E.02367
G1 X241.3 Y63.241 E2.46989
G1 X240.653 Y63.241 E.02367
G1 X193.516 Y16.105 E2.43642
G1 X193.516 Y16.752 E.02367
G1 X240.005 Y63.241 E2.40295
G1 X239.358 Y63.241 E.02367
G1 X193.516 Y17.4 E2.36948
G1 X193.516 Y18.047 E.02367
G1 X238.71 Y63.241 E2.33601
G1 X238.063 Y63.241 E.02367
G1 X193.516 Y18.695 E2.30254
G1 X193.516 Y19.343 E.02367
G1 X237.415 Y63.241 E2.26907
G1 X236.768 Y63.241 E.02367
G1 X193.516 Y19.99 E2.2356
G1 X193.516 Y20.638 E.02367
G1 X236.12 Y63.241 E2.20213
G1 X235.473 Y63.241 E.02367
G1 X193.516 Y21.285 E2.16866
G1 X193.516 Y21.933 E.02367
G1 X234.825 Y63.241 E2.13519
G1 X234.177 Y63.241 E.02367
G1 X193.516 Y22.58 E2.10172
G1 X193.516 Y23.228 E.02367
G1 X233.53 Y63.241 E2.06825
G1 X232.882 Y63.241 E.02367
G1 X193.516 Y23.875 E2.03478
G1 X193.516 Y24.523 E.02367
G1 X232.235 Y63.241 E2.00131
G1 X231.587 Y63.241 E.02367
G1 X193.516 Y25.17 E1.96784
G1 X193.516 Y25.818 E.02367
G1 X230.94 Y63.241 E1.93437
G1 X230.292 Y63.241 E.02367
G1 X193.516 Y26.465 E1.9009
G1 X193.516 Y27.113 E.02367
G1 X229.645 Y63.241 E1.86743
G1 X228.997 Y63.241 E.02367
G1 X193.516 Y27.76 E1.83396
G1 X193.516 Y28.408 E.02367
G1 X228.35 Y63.241 E1.80049
G1 X227.702 Y63.241 E.02367
G1 X193.516 Y29.055 E1.76702
G1 X193.516 Y29.703 E.02367
G1 X227.055 Y63.241 E1.73355
G1 X226.407 Y63.241 E.02367
G1 X193.516 Y30.351 E1.70008
G1 X193.516 Y30.998 E.02367
G1 X225.76 Y63.241 E1.66661
G1 X225.112 Y63.241 E.02367
G1 X193.516 Y31.646 E1.63314
G1 X193.516 Y32.293 E.02367
G1 X224.465 Y63.241 E1.59967
G1 X223.817 Y63.241 E.02367
G1 X193.516 Y32.941 E1.5662
G1 X193.516 Y33.588 E.02367
G1 X223.169 Y63.241 E1.53273
G1 X222.522 Y63.241 E.02367
G1 X193.516 Y34.236 E1.49926
G1 X193.516 Y34.883 E.02367
G1 X221.874 Y63.241 E1.46579
G1 X221.227 Y63.241 E.02367
G1 X193.516 Y35.531 E1.43232
G1 X193.516 Y36.178 E.02367
G1 X220.579 Y63.241 E1.39885
G1 X219.932 Y63.241 E.02367
G1 X193.516 Y36.826 E1.36538
G1 X193.516 Y37.473 E.02367
G1 X219.284 Y63.241 E1.33191
G1 X218.637 Y63.241 E.02367
G1 X193.516 Y38.121 E1.29844
G1 X193.516 Y38.768 E.02367
G1 X217.989 Y63.241 E1.26497
G1 X217.342 Y63.241 E.02367
G1 X193.516 Y39.416 E1.2315
G1 X193.516 Y40.064 E.02367
G1 X216.694 Y63.241 E1.19803
G1 X216.047 Y63.241 E.02367
G1 X193.516 Y40.711 E1.16456
G1 X193.516 Y41.359 E.02367
G1 X215.399 Y63.241 E1.13109
G1 X214.752 Y63.241 E.02367
G1 X193.516 Y42.006 E1.09762
G1 X193.516 Y42.654 E.02367
G1 X214.104 Y63.241 E1.06415
G1 X213.457 Y63.241 E.02367
G1 X193.516 Y43.301 E1.03068
G1 X193.516 Y43.949 E.02367
G1 X212.809 Y63.241 E.99721
G1 X212.161 Y63.241 E.02367
G1 X193.516 Y44.596 E.96374
G1 X193.516 Y45.244 E.02367
G1 X211.514 Y63.241 E.93027
G1 X210.866 Y63.241 E.02367
G1 X193.516 Y45.891 E.8968
G1 X193.516 Y46.539 E.02367
G1 X210.219 Y63.241 E.86333
G1 X209.571 Y63.241 E.02367
G1 X193.516 Y47.186 E.82986
G1 X193.516 Y47.834 E.02367
G1 X208.924 Y63.241 E.79639
G1 X208.276 Y63.241 E.02367
G1 X193.516 Y48.481 E.76292
G1 X193.516 Y49.129 E.02367
G1 X207.629 Y63.241 E.72945
G1 X206.981 Y63.241 E.02367
G1 X193.516 Y49.776 E.69599
G1 X193.516 Y50.424 E.02367
G1 X206.334 Y63.241 E.66252
G1 X205.686 Y63.241 E.02367
G1 X193.516 Y51.072 E.62905
G1 X193.516 Y51.719 E.02367
G1 X205.039 Y63.241 E.59558
G1 X204.391 Y63.241 E.02367
G1 X193.516 Y52.367 E.56211
G1 X193.516 Y53.014 E.02367
G1 X203.744 Y63.241 E.52864
G1 X203.096 Y63.241 E.02367
G1 X193.516 Y53.662 E.49517
G1 X193.516 Y54.309 E.02367
G1 X202.449 Y63.241 E.4617
G1 X201.801 Y63.241 E.02367
G1 X193.516 Y54.957 E.42823
G1 X193.516 Y55.604 E.02367
G1 X201.153 Y63.241 E.39476
G1 X200.506 Y63.241 E.02367
G1 X193.516 Y56.252 E.36129
G1 X193.516 Y56.899 E.02367
G1 X199.858 Y63.241 E.32782
G1 X199.211 Y63.241 E.02367
G1 X193.516 Y57.547 E.29435
G1 X193.516 Y58.194 E.02367
G1 X198.563 Y63.241 E.26088
G1 X197.916 Y63.241 E.02367
G1 X193.516 Y58.842 E.22741
G1 X193.516 Y59.489 E.02367
G1 X197.268 Y63.241 E.19394
G1 X196.621 Y63.241 E.02367
G1 X193.516 Y60.137 E.16047
G1 X193.516 Y60.784 E.02367
G1 X195.973 Y63.241 E.127
G1 X195.326 Y63.241 E.02367
G1 X193.516 Y61.432 E.09353
G1 X193.516 Y62.08 E.02367
G1 X194.678 Y63.241 E.06006
G1 X194.031 Y63.241 E.02367
G1 X193.311 Y62.521 E.03722
G1 E-.728 F1800
;WIPE_START
G1 F30000
G1 X194.031 Y63.241 E-.0611
G1 X194.212 Y63.241 E-.0109
;WIPE_END
EXCLUDE_OBJECT_END NAME=Cube_8_id_0_copy_0
M106 S0
M106 P2 S0
;TYPE:Custom
; filament end gcode 
;===== date: 20250109 =====================
M400 ; wait for buffer to clear
M140 S0 ;Turn-off bed
M106 S255 ;Cooling nozzle
M83
G92 E0 ; zero the extruder
G2 I1 J0 Z0.7 E-1 F3000 ; lower z a little
G90
G1 Z100 F20000 ; Move print head up 
M204 S5000
M400
M83
G1 X202 F20000
M400
G1 Y250 F20000
G1 Y264.5 F1200
M400
G92 E0
M104 S0 ;Turn-off hotend
M140 S0 ;Turn-off bed
M106 S0 ; turn off fan
M106 P2 S0 ; turn off remote part cooling fan
M106 P3 S0 ; turn off chamber cooling fan
M84 ;Disable all steppers
; EXECUTABLE_BLOCK_END

; filament used [mm] = 196.96
; filament used [cm3] = 0.47
; filament used [g] = 0.59
; total filament used [g] = 0.59
; total filament cost = 0.00
; total layers count = 1
; estimated printing time (normal mode) = 1m 33s
; estimated first layer printing time (normal mode) = 1s

; CONFIG_BLOCK_START
; accel_to_decel_enable = 0
; accel_to_decel_factor = 50%
; activate_air_filtration = 0
; activate_chamber_temp_control = 0
; adaptive_bed_mesh_margin = 0
; adaptive_pressure_advance = 0
; adaptive_pressure_advance_bridges = 0
; adaptive_pressure_advance_model = "0,0,0\n0,0,0"
; adaptive_pressure_advance_overhangs = 0
; additional_cooling_fan_speed = 0
; align_infill_direction_to_model = 0
; alternate_extra_wall = 0
; auxiliary_fan = 1
; bbl_calib_mark_logo = 1
; bbl_use_printhost = 0
; bed_custom_model = 
; bed_custom_texture = 
; bed_exclude_area = 246x0,256x0,256x20,246x20
; bed_mesh_max = 99999,99999
; bed_mesh_min = -99999,-99999
; bed_mesh_probe_distance = 50,50
; before_layer_change_gcode = ;BEFORE_LAYER_CHANGE\n;[layer_z]\nG92 E0\n;{if layer_num >= full_fan_speed_layer[current_extruder]}\n;{if filament_type[initial_no_support_extruder]==\"ASA\"}\n;M106 P3 S100\n;{endif}\n;{endif}\n;{if layer_num >= full_fan_speed_layer[current_extruder]}\n;{if filament_type[initial_no_support_extruder]==\"ABS\"}\n;M106 P3 S100\n;{endif}\n;{endif}
; best_object_pos = 0.5,0.5
; bottom_shell_layers = 5
; bottom_shell_thickness = 0.6
; bottom_solid_infill_flow_ratio = 1
; bottom_surface_density = 100%
; bottom_surface_pattern = monotonic
; bridge_acceleration = 50%
; bridge_angle = 0
; bridge_density = 100%
; bridge_flow = 1
; bridge_no_support = 0
; bridge_speed = 50
; brim_ears_detection_length = 1
; brim_ears_max_angle = 125
; brim_object_gap = 0.1
; brim_type = no_brim
; brim_width = 5
; calib_flowrate_topinfill_special_order = 0
; chamber_temperature = 0
; change_extrusion_role_gcode = 
; change_filament_gcode = M600
; close_fan_the_first_x_layers = 1
; complete_print_exhaust_fan_speed = 70
; cool_plate_temp = 35
; cool_plate_temp_initial_layer = 35
; cooling_tube_length = 5
; cooling_tube_retraction = 90
; counterbore_hole_bridging = none
; curr_bed_type = Textured PEI Plate
; default_acceleration = 10000
; default_bed_type = 4
; default_filament_colour = ""
; default_filament_profile = "Elegoo PLA @ECC"
; default_jerk = 0
; default_junction_deviation = 0
; default_print_profile = 0.20mm Standard @Elegoo CC 0.4 nozzle
; deretraction_speed = 30
; detect_narrow_internal_solid_infill = 1
; detect_overhang_wall = 1
; detect_thin_wall = 0
; different_settings_to_system = brim_type;filament_flow_ratio;overhang_fan_threshold;before_layer_change_gcode;host_type;layer_change_gcode;machine_start_gcode;print_host
; disable_m73 = 1
; dont_filter_internal_bridges = disabled
; dont_slow_down_outer_wall = 0
; draft_shield = disabled
; during_print_exhaust_fan_speed = 70
; elefant_foot_compensation = 0.1
; elefant_foot_compensation_layers = 1
; emit_machine_limits_to_gcode = 1
; enable_arc_fitting = 1
; enable_extra_bridge_layer = disabled
; enable_filament_ramming = 0
; enable_long_retraction_when_cut = 0
; enable_overhang_bridge_fan = 1
; enable_overhang_speed = 1
; enable_pressure_advance = 0
; enable_prime_tower = 0
; enable_support = 0
; enforce_support_layers = 0
; eng_plate_temp = 0
; eng_plate_temp_initial_layer = 0
; ensure_vertical_shell_thickness = ensure_all
; exclude_object = 1
; extra_loading_move = -2
; extra_perimeters_on_overhangs = 0
; extruder_clearance_height_to_lid = 90
; extruder_clearance_height_to_rod = 36
; extruder_clearance_radius = 57
; extruder_colour = #000000
; extruder_offset = 0x0
; extrusion_rate_smoothing_external_perimeter_only = 0
; fan_cooling_layer_time = 80
; fan_kickstart = 0
; fan_max_speed = 100
; fan_min_speed = 50
; fan_speedup_overhangs = 1
; fan_speedup_time = 0.5
; filament_colour = #000000
; filament_cooling_final_speed = 3.4
; filament_cooling_initial_speed = 2.2
; filament_cooling_moves = 4
; filament_cost = 0
; filament_density = 1.25
; filament_diameter = 1.75
; filament_end_gcode = "; filament end gcode \n"
; filament_flow_ratio = 0.96
; filament_ids = EPLAB00
; filament_is_support = 0
; filament_loading_speed = 28
; filament_loading_speed_start = 3
; filament_max_volumetric_speed = 21
; filament_minimal_purge_on_wipe_tower = 15
; filament_multitool_ramming = 0
; filament_multitool_ramming_flow = 10
; filament_multitool_ramming_volume = 10
; filament_notes = ""
; filament_ramming_parameters = "120 100 6.6 6.8 7.2 7.6 7.9 8.2 8.7 9.4 9.9 10.0| 0.05 6.6 0.45 6.8 0.95 7.8 1.45 8.3 1.95 9.7 2.45 10 2.95 7.6 3.45 7.6 3.95 7.6 4.45 7.6 4.95 7.6"
; filament_settings_id = "My Elegoo PLA"
; filament_shrink = 100%
; filament_shrinkage_compensation_z = 100%
; filament_soluble = 0
; filament_stamping_distance = 0
; filament_stamping_loading_speed = 0
